X:17
T:Vil du hoere nytt (R\orospols)
R:r\orospols
Z:Brekken Spellmannslag, StorBrekkingen, Track 28
Z:(also R\orostraktom #162)
M:3/4
L:1/8
K:A
|: "A"(c>d) (e<a) f>d \
| "E"(d<c) e4- \
| "A"euc A2- A>c \
| "A/E"e>(a f<d) "D"d>c |
| "A"(c>d) (e<a) f>d \
| "A/E"(d<c) c2- c>(c \
| "E/B"B>d) ((3cAc) B>G \
| "A"{G}A2 A4 :|
|: "E"(c>B) (B<G) G>B \
| "A"B>(d c<A) A>c \
| "E"(c>B) (B<G) G>G \
| "A"A>(A E4) |
| "E"(c>B) (B<G) G>B \
| "A"B>(d c<A) A>c \
| "E"(c>B) (B<G) G>B \
| "A"((3Ace) "D"a2- a>(f \
| "E"d2) ((3cAc) B>G \
| "A"{G}A2 A4 :|
